X: 122
T: No_207_Song_for_the_Dying.krn
N: Derived from No_207_Song_for_the_Dying.krn
%%abc-version 2.0
%%abcx-abcm2ps-target-version 5.9.1 (29 Sep 2008)
%%abc-creator hum2abc beta
%%abcx-conversion-date 2019/03/15 08:38:45
%%humdrum-veritas 2601544706
%%humdrum-veritas-data 917110582
%%linebreak <none>
%%barnumbers 0
L: 1/8
M: 3/4
K: E clef=treble
[K:clef=treble][M:3/4]z4E2 | 
G4-GA/G/ ||  
[M:2/4]GF EE/ z/ | 
z2E2 | 
F zz2 ||  
z4 ]|:  
EA AG | 
AA G z | 
EA AG | 
AEE2 | 
AEE2 | 
AEE2 | 
z4 ||  
[M:3/4]E3/E/ E3/B,/ E3/B,/ ||  
[M:4/4]E3/E/E z E/F/B,z2 ||  
[M:5/8]E3/B,/E3/E/E :|]  



